X:16757
T:The Girl I Left Behind Me
M:4/4
L:1/8
K:G
gf|e2 dc B2A2|B2 G2 E3F|G2G2 GABc|d2d2 B2gf|e2 dc B2A2|B2 G2 E3G|FGAF DD
EF|G4 G4||B2d2e2f2|g2d2 BAGA|B2d2e2f2|g4f2 gf|e2 dc B2A2|B2G2E2G2|FGAG D
DEF|G4 G4||
